svg/600/outlined/egg_alt-fill.svg

<svg xmlns="http://www.w3.org/2000/svg" width="48" height="48" viewBox="0 -960 960 960"><path d="M639.897-67q-70.854 0-108.18-24.76-37.326-24.761-62.457-50.892-17.304-17.739-32.543-31.043-15.239-13.304-37.717-13.304-46.623 0-104.235-16.396t-107.968-53.338q-50.356-36.941-84.867-96.471Q67.42-412.733 67-499q-1.435-171.522 86.545-282.761 87.98-111.24 245.455-111.24 72.027 0 122.544 20.218 50.516 20.217 86.812 51.5 36.296 31.282 62.015 69.155 25.718 37.872 47.542 73.258 12 19.787 24.283 37.806 12.283 18.02 26.848 32.02 62.261 62.261 93.109 108.392 30.848 46.13 30.848 141.392 0 126.081-78.781 209.171-78.781 83.09-174.323 83.09ZM480.202-360Q530-360 565-395.202t35-85Q600-530 564.798-565t-85-35Q430-600 395-564.798t-35 85Q360-430 395.202-395t85 35Z"/></svg>

<svg xmlns="http://www.w3.org/2000/svg" width="48" height="48" viewBox="0 -960 960 960"><path d="M639.9-67q-70.86 0-108.18-24.76-37.33-24.76-62.46-50.89-17.3-17.74-32.54-31.05Q421.48-187 399-187q-46.62 0-104.23-16.4-57.62-16.39-107.97-53.33-50.36-36.94-84.87-96.47Q67.42-412.73 67-499q-1.44-171.52 86.54-282.76Q241.53-893 399-893q72.03 0 122.54 20.22 50.52 20.21 86.82 51.5 36.29 31.28 62.01 69.15 25.72 37.87 47.54 73.26 12 19.79 24.29 37.81 12.28 18.02 26.84 32.02 62.26 62.26 93.11 108.39T893-359.26q0 126.08-78.78 209.17Q735.44-67 639.9-67ZM480.2-360q49.8 0 84.8-35.2t35-85q0-49.8-35.2-84.8t-85-35q-49.8 0-84.8 35.2t-35 85q0 49.8 35.2 84.8t85 35Z"/></svg>
